svg/text_box_search_outline.svg

<svg xmlns="http://www.w3.org/2000/svg" viewBox="0 0 24 24"><path d="M15.5 12c2.5 0 4.5 2 4.5 4.5 0 .88-.25 1.71-.69 2.4l3.08 3.1L21 23.39l-3.12-3.07c-.69.43-1.51.68-2.38.68-2.5 0-4.5-2-4.5-4.5s2-4.5 4.5-4.5m0 2a2.5 2.5 0 0 0-2.5 2.5 2.5 2.5 0 0 0 2.5 2.5 2.5 2.5 0 0 0 2.5-2.5 2.5 2.5 0 0 0-2.5-2.5M5 3h14c1.11 0 2 .89 2 2v8.03c-.5-.8-1.19-1.49-2-2.03V5H5v14h4.5c.31.75.76 1.42 1.31 2H5c-1.11 0-2-.89-2-2V5c0-1.11.89-2 2-2m2 4h10v2H7zm0 4h5.03c-.8.5-1.49 1.19-2.03 2H7zm0 4h2.17c-.11.5-.17 1-.17 1.5v.5H7z"/></svg>

<?xml version="1.0" encoding="UTF-8"?><!DOCTYPE svg PUBLIC "-//W3C//DTD SVG 1.1//EN" "http://www.w3.org/Graphics/SVG/1.1/DTD/svg11.dtd"><svg xmlns="http://www.w3.org/2000/svg" xmlns:xlink="http://www.w3.org/1999/xlink" version="1.1" id="mdi-text-box-search-outline" width="24" height="24" viewBox="0 0 24 24"><path d="M15.5,12C18,12 20,14 20,16.5C20,17.38 19.75,18.21 19.31,18.9L22.39,22L21,23.39L17.88,20.32C17.19,20.75 16.37,21 15.5,21C13,21 11,19 11,16.5C11,14 13,12 15.5,12M15.5,14A2.5,2.5 0 0,0 13,16.5A2.5,2.5 0 0,0 15.5,19A2.5,2.5 0 0,0 18,16.5A2.5,2.5 0 0,0 15.5,14M5,3H19C20.11,3 21,3.89 21,5V13.03C20.5,12.23 19.81,11.54 19,11V5H5V19H9.5C9.81,19.75 10.26,20.42 10.81,21H5C3.89,21 3,20.11 3,19V5C3,3.89 3.89,3 5,3M7,7H17V9H7V7M7,11H12.03C11.23,11.5 10.54,12.19 10,13H7V11M7,15H9.17C9.06,15.5 9,16 9,16.5V17H7V15Z" /></svg>
